X:1
T:Jolly Toper [sic], The
T:Women all tell me I'm false to my lass, The
M:6/4
R:Air
N:The final two bars are in instrumental tag.
B:Hinton - Universal Magazine of Knowledge and Pleasure (June, 1751, p. 318)
Z:AK/Fiddler's Companion
K:D
A2|F3G A2 d3cB2|A3 G F2 {F}E4 A G|
F3G A2 d3c B2|e2E2^G2 {G}A4:|
|:A G|F2D2 d2 B3 =cB2|^G2E2e2 {d}c4{B}A2|
d3e f2 G F3A2|B3d c2 {c}Od4 A2|
d3e f2 G2F2A2|B3 d c2 !fermata!d4:|

